X:1
T:Title
%%score ( 1 2 ) ( 3 4 )
L:1/8
M:4/4
K:F
V:1 treble nm="Grand Piano, Unnamed-000"
V:2 treble 
V:3 bass nm="Choir Pad, Unnamed-001"
V:4 bass 
V:1
 [CF]2 [FA]4 [FB]2 | [FB]2 [FA]2- [FA][CG] [CF]2 | [FA]2 [EG]4 [CE]2 | [CE]2 [CF]6 | %4
w: By~Adoniram~J.~~Gordon,~1876 * *||||
 [CF]2 [FA]4 [FB]2 | [FB]2 [FA]2- [FA][CG] [CF]2 | [FA]2 [EG]4 [CE]2 | [CE]2 [CF]6 | %8
w: ||||
 [FA]2 [Fc]4 [Fd]2 | [Fc]2 [EB]2 [FA]2 [CG]2 | z2 A2 z4 | z2 F4 z2 | [CF]2 [FA]4 [FB]2 | %13
w: |||||
 [FB]2 [FA]2- [FA][CG] [CF]2 | [FA]2 c2 B2 [EA]2 | [CG]2 [CF]6- | [CF]2 z2 z4 |] %17
w: ||||
V:2
 x8 | x8 | x8 | x8 | x8 | x8 | x8 | x8 | x8 | x8 | C2 C2- [Cc]2 [DB]2 | [DG]2 C4- [CE]2 | x8 | x8 | %14
 z2 F4 z2 | x8 | x8 |] %17
V:3
 [F,A,]2 [F,C]4 [F,D]2 | [F,D]2 C2- CB, [F,A,]2 | [F,C]2 [C,B,]4 [C,G,]2 | [C,G,]2 [F,A,]6 | %4
 [F,A,]2 [F,C]4 [F,D]2 | [F,D]2 C2- CB, [F,A,]2 | [F,C]2 [C,B,]4 [C,G,]2 | [C,G,]2 [F,A,]6 | %8
 [F,C]2 [A,C]4 B,2 | [A,C]2 C2- [F,C]2 [E,C]2 | [D,C]2 C2 A,2 [B,,G,]2 | [B,,B,]2 A,4 G,2 | %12
 [F,A,]2 [F,C]4 [F,D]2 | [F,D]2 C2- CB, [F,A,]2 | [F,C]2 A,2 G,2 [C,C]2 | [C,B,]2 [F,A,]6- | %16
 [F,A,]2 z2 z4 |] %17
V:4
 x8 | z2 F,4 z2 | x8 | x8 | x8 | z2 F,4 z2 | x8 | x8 | x8 | z2 G,2 z4 | z2 F,4 z2 | z2 C,6 | x8 | %13
 z2 F,4 z2 | z2 C,4 z2 | x8 | x8 |] %17

